report_00007_2020-12-11T15:55:29.892Z/bootup-time/comparison/line/3_vs_4.svg

<svg width="640" height="500" xmlns="http://www.w3.org/2000/svg" xmlns:xlink="http://www.w3.org/1999/xlink"><path fill="#fff" d="M0 0h640v500H0z"/><defs><path id="d" stroke-width=".222" stroke="currentColor" d="M-1-1h2v2h-2z"/><path id="b" stroke-width=".222" stroke="currentColor" d="M0-1.33l-1.33 2h2.66z"/><path id="f" stroke-width=".222" stroke="currentColor" d="M0 1.33L1.265.411.782-1.067l-1.564-.009-.483 1.487z"/><use xlink:href="#b" id="c" stroke="currentColor" transform="rotate(180)"/><use xlink:href="#d" id="e" stroke="currentColor" transform="rotate(45)"/><circle id="a" stroke-width=".222" stroke="currentColor" cx="0" cy="0" r="1"/></defs><g fill="none" color="#000" stroke="currentColor"><path stroke="#000" d="M53.9 376.9h9m552.1 0h-9"/><text transform="translate(45.6 380.8)" stroke="none" fill="#000" font-family="Arial" font-size="12" text-anchor="end"><tspan>100</tspan></text></g><g fill="none" color="#000" stroke="currentColor"><path stroke="#000" d="M53.9 307.4h9m552.1 0h-9"/><text transform="translate(45.6 311.3)" stroke="none" fill="#000" font-family="Arial" font-size="12" text-anchor="end"><tspan>200</tspan></text></g><g fill="none" color="#000" stroke="currentColor"><path stroke="#000" d="M53.9 237.9h9m552.1 0h-9"/><text transform="translate(45.6 241.8)" stroke="none" fill="#000" font-family="Arial" font-size="12" text-anchor="end"><tspan>300</tspan></text></g><g fill="none" color="#000" stroke="currentColor"><path stroke="#000" d="M53.9 168.4h9m552.1 0h-9"/><text transform="translate(45.6 172.3)" stroke="none" fill="#000" font-family="Arial" font-size="12" text-anchor="end"><tspan>400</tspan></text></g><g fill="none" color="#000" stroke="currentColor"><path stroke="#000" d="M53.9 98.8h9m552.1 0h-9"/><text transform="translate(45.6 102.7)" stroke="none" fill="#000" font-family="Arial" font-size="12" text-anchor="end"><tspan>500</tspan></text></g><g fill="none" color="#000" stroke="currentColor"><path stroke="#000" d="M53.9 29.3h9m552.1 0h-9"/><text transform="translate(45.6 33.2)" stroke="none" fill="#000" font-family="Arial" font-size="12" text-anchor="end"><tspan>600</tspan></text></g><g fill="none" color="#000" stroke="currentColor"><path stroke="#000" d="M53.9 428v-9m0-400.9v9"/><text transform="translate(53.9 449.9)" stroke="none" fill="#000" font-family="Arial" font-size="12" text-anchor="middle"><tspan>0</tspan></text></g><g fill="none" color="#000" stroke="currentColor"><path stroke="#000" d="M110.6 428v-9m0-400.9v9"/><text transform="translate(110.6 449.9)" stroke="none" fill="#000" font-family="Arial" font-size="12" text-anchor="middle"><tspan>10</tspan></text></g><g fill="none" color="#000" stroke="currentColor"><path stroke="#000" d="M167.3 428v-9m0-400.9v9"/><text transform="translate(167.3 449.9)" stroke="none" fill="#000" font-family="Arial" font-size="12" text-anchor="middle"><tspan>20</tspan></text></g><g fill="none" color="#000" stroke="currentColor"><path stroke="#000" d="M223.9 428v-9m0-400.9v9"/><text transform="translate(223.9 449.9)" stroke="none" fill="#000" font-family="Arial" font-size="12" text-anchor="middle"><tspan>30</tspan></text></g><g fill="none" color="#000" stroke="currentColor"><path stroke="#000" d="M280.6 428v-9m0-400.9v9"/><text transform="translate(280.6 449.9)" stroke="none" fill="#000" font-family="Arial" font-size="12" text-anchor="middle"><tspan>40</tspan></text></g><g fill="none" color="#000" stroke="currentColor"><path stroke="#000" d="M337.3 428v-9m0-400.9v9"/><text transform="translate(337.3 449.9)" stroke="none" fill="#000" font-family="Arial" font-size="12" text-anchor="middle"><tspan>50</tspan></text></g><g fill="none" color="#000" stroke="currentColor"><path stroke="#000" d="M394 428v-9m0-400.9v9"/><text transform="translate(394 449.9)" stroke="none" fill="#000" font-family="Arial" font-size="12" text-anchor="middle"><tspan>60</tspan></text></g><g fill="none" color="#000" stroke="currentColor"><path stroke="#000" d="M450.6 428v-9m0-400.9v9"/><text transform="translate(450.6 449.9)" stroke="none" fill="#000" font-family="Arial" font-size="12" text-anchor="middle"><tspan>70</tspan></text></g><g fill="none" color="#000" stroke="currentColor"><path stroke="#000" d="M507.3 428v-9m0-400.9v9"/><text transform="translate(507.3 449.9)" stroke="none" fill="#000" font-family="Arial" font-size="12" text-anchor="middle"><tspan>80</tspan></text></g><g fill="none" color="#000" stroke="currentColor"><path stroke="#000" d="M564 428v-9m0-400.9v9"/><text transform="translate(564 449.9)" stroke="none" fill="#000" font-family="Arial" font-size="12" text-anchor="middle"><tspan>90</tspan></text></g><path stroke="#000" d="M53.9 18.1V428H615V18.1H53.9z" fill="none" color="#000"/><text transform="translate(275.6 467.9)" stroke="none" fill="#000" font-family="Arial" font-size="12" text-anchor="end" color="#000"><tspan>pages+cached+nointeractive</tspan></text><path stroke="#9400D3" d="M283.9 464h42.2M53.9 43.1l5.7 25 5.6-37.8 5.7 22 5.7-6 5.6 18.2 5.7-21 5.7 23.4 5.6-19.7 5.7-21.2 5.7 25.8 5.6-4.8 5.7 6.4 5.7-7.2 5.6 21.7 5.7-.6 5.7-17.9 5.7 20.3 5.6-5.7 5.7-15.5 5.7 18.2 5.6-1.7 5.7 2.4 5.7-17.3 5.6-16.6 5.7 29.2 5.7 4.8 5.6.2 5.7-1.3 5.7 3.1 5.6-19.8 5.7 17.6 5.7.2 5.6-21.7 5.7 22.6 5.7 1.1 5.6-10.5 5.7-.2 5.7-9.5 5.6 13.7 5.7 3.4 5.7-15.7 5.6 21.2 5.7-22.1 5.7 17.4 5.6-4.2 5.7 1.4 5.7-5.5 5.6-2.5 5.7 9.8 5.7-1.9 5.7-.9 5.6-.1 5.7 4.2 5.7-5.6 5.6 4.9 5.7-25.1 5.7 9 5.6 14.3 5.7 5 5.7-3.4 5.6-16.4 5.7 15.6 5.7 3.3 5.6-.6 5.7-5.3L428 67l5.6-.3 5.7-14.8L445 64l5.6-18.7 5.7 2.2 5.7 15.6 5.6-14.9 5.7 15.6 5.7 1.7 5.6 1.7 5.7.1 5.7 1.2 5.6 3.1 5.7-12.7 5.7 3.3 5.6-6.5 5.7 11.4L530 66l5.7-22.8 5.6 22.3L547 44l5.7 20.2 5.6.1 5.7 3.8 5.7-16 5.6 16.5 5.7-.9 5.7-6.7 5.6-10.6 5.7 17.2 5.7-2.6 5.6-16.6 5.7 9.1" fill="none" color="#000"/><text transform="translate(275.6 485.9)" stroke="none" fill="#000" font-family="Arial" font-size="12" text-anchor="end" color="#000"><tspan>pages+cached+noadtech</tspan></text><path stroke="#009E73" d="M283.9 482h42.2M53.9 417.5l5.7 1.2 5.6-.8 5.7-.4 5.7.6 5.6.2 5.7.4 5.7.1 5.6-.3 5.7-.8 5.7.2 5.6-.5 5.7 1 5.7-.1 5.6.2 5.7-.1 5.7.1 5.7.3 5.6-.8 5.7-.1 5.7.1 5.6.7 5.7 1.4 5.7-2.2 5.6.5 5.7-.6 5.7.4h5.6l5.7.5 5.7-.4 5.6-3.1 5.7 4.4 5.7-.2 5.6-1 5.7-.7 5.7-.3 5.6 1.1 5.7.2 5.7-.4 5.6.3 5.7-1 5.7 1 5.6-.2 5.7-.9 5.7.3 5.6.1 5.7.2 5.7-.8 5.6.3 5.7.4 5.7.7 5.7-1.3 5.6 1.3 5.7-1.2 5.7.8 5.6.2 5.7-1.1 5.7.5 5.6.7 5.7-.6 5.7.6 5.6-.3 5.7.4 5.7-.7 5.6 1.5 5.7-1.2 5.7.2 5.6-.1 5.7-.5 5.7 1 5.6-2.5 5.7 1.7 5.7.6 5.6-1.6 5.7.7 5.7 1.2 5.6-1 5.7.2 5.7 1.1 5.6-1.8 5.7.2 5.7 1.3 5.6-1 5.7-1.2 5.7 2.5 5.7-.5 5.6-.7 5.7-.3 5.7 1.1 5.6-.8 5.7-.1 5.7.3 5.6-.4 5.7.5 5.7.3 5.6-1.3 5.7.8 5.7.6 5.6-.7 5.7-.5" fill="none" color="#000"/><text transform="translate(550.2 467.9)" stroke="none" fill="#000" font-family="Arial" font-size="12" text-anchor="end" color="#000"><tspan>score p10=1282</tspan></text><path stroke="#56B4E9" d="M558.5 464h42.2" fill="none" color="#000"/><g><text transform="translate(550.2 485.9)" stroke="none" fill="#000" font-family="Arial" font-size="12" text-anchor="end" color="#000"><tspan>score median=3500</tspan></text><path stroke="#E69F00" d="M558.5 482h42.2" fill="none" color="#000"/></g><g fill="none" color="#000" stroke="currentColor"><path stroke="#000" d="M53.9 18.1V428H615V18.1H53.9z"/></g></svg>

<?xml version="1.0" encoding="utf-8"  standalone="no"?>
<svg 
 width="640" height="500"
 viewBox="0 0 640 500"
 xmlns="http://www.w3.org/2000/svg"
 xmlns:xlink="http://www.w3.org/1999/xlink"
>

<title>Gnuplot</title>
<desc>Produced by GNUPLOT 5.4 patchlevel 0 </desc>

<g id="gnuplot_canvas">

<rect x="0" y="0" width="640" height="500" fill="#ffffff"/>
<defs>

	<circle id='gpDot' r='0.5' stroke-width='0.5' stroke='currentColor'/>
	<path id='gpPt0' stroke-width='0.222' stroke='currentColor' d='M-1,0 h2 M0,-1 v2'/>
	<path id='gpPt1' stroke-width='0.222' stroke='currentColor' d='M-1,-1 L1,1 M1,-1 L-1,1'/>
	<path id='gpPt2' stroke-width='0.222' stroke='currentColor' d='M-1,0 L1,0 M0,-1 L0,1 M-1,-1 L1,1 M-1,1 L1,-1'/>
	<rect id='gpPt3' stroke-width='0.222' stroke='currentColor' x='-1' y='-1' width='2' height='2'/>
	<rect id='gpPt4' stroke-width='0.222' stroke='currentColor' fill='currentColor' x='-1' y='-1' width='2' height='2'/>
	<circle id='gpPt5' stroke-width='0.222' stroke='currentColor' cx='0' cy='0' r='1'/>
	<use xlink:href='#gpPt5' id='gpPt6' fill='currentColor' stroke='none'/>
	<path id='gpPt7' stroke-width='0.222' stroke='currentColor' d='M0,-1.33 L-1.33,0.67 L1.33,0.67 z'/>
	<use xlink:href='#gpPt7' id='gpPt8' fill='currentColor' stroke='none'/>
	<use xlink:href='#gpPt7' id='gpPt9' stroke='currentColor' transform='rotate(180)'/>
	<use xlink:href='#gpPt9' id='gpPt10' fill='currentColor' stroke='none'/>
	<use xlink:href='#gpPt3' id='gpPt11' stroke='currentColor' transform='rotate(45)'/>
	<use xlink:href='#gpPt11' id='gpPt12' fill='currentColor' stroke='none'/>
	<path id='gpPt13' stroke-width='0.222' stroke='currentColor' d='M0,1.330 L1.265,0.411 L0.782,-1.067 L-0.782,-1.076 L-1.265,0.411 z'/>
	<use xlink:href='#gpPt13' id='gpPt14' fill='currentColor' stroke='none'/>
	<filter id='textbox' filterUnits='objectBoundingBox' x='0' y='0' height='1' width='1'>
	  <feFlood flood-color='#FFFFFF' flood-opacity='1' result='bgnd'/>
	  <feComposite in='SourceGraphic' in2='bgnd' operator='atop'/>
	</filter>
	<filter id='greybox' filterUnits='objectBoundingBox' x='0' y='0' height='1' width='1'>
	  <feFlood flood-color='lightgrey' flood-opacity='1' result='grey'/>
	  <feComposite in='SourceGraphic' in2='grey' operator='atop'/>
	</filter>
</defs>
<g fill="none" color="#FFFFFF" stroke="black" stroke-width="1.00" stroke-linecap="butt" stroke-linejoin="miter">
</g>
<g fill="none" color="black" stroke="currentColor" stroke-width="1.00" stroke-linecap="butt" stroke-linejoin="miter">
	<path stroke='black'  d='M53.9,376.9 L62.9,376.9 M615.0,376.9 L606.0,376.9  '/>	<g transform="translate(45.6,380.8)" stroke="none" fill="black" font-family="Arial" font-size="12.00"  text-anchor="end">
		<text><tspan font-family="Arial" > 100</tspan></text>
	</g>
</g>
<g fill="none" color="black" stroke="currentColor" stroke-width="1.00" stroke-linecap="butt" stroke-linejoin="miter">
	<path stroke='black'  d='M53.9,307.4 L62.9,307.4 M615.0,307.4 L606.0,307.4  '/>	<g transform="translate(45.6,311.3)" stroke="none" fill="black" font-family="Arial" font-size="12.00"  text-anchor="end">
		<text><tspan font-family="Arial" > 200</tspan></text>
	</g>
</g>
<g fill="none" color="black" stroke="currentColor" stroke-width="1.00" stroke-linecap="butt" stroke-linejoin="miter">
	<path stroke='black'  d='M53.9,237.9 L62.9,237.9 M615.0,237.9 L606.0,237.9  '/>	<g transform="translate(45.6,241.8)" stroke="none" fill="black" font-family="Arial" font-size="12.00"  text-anchor="end">
		<text><tspan font-family="Arial" > 300</tspan></text>
	</g>
</g>
<g fill="none" color="black" stroke="currentColor" stroke-width="1.00" stroke-linecap="butt" stroke-linejoin="miter">
	<path stroke='black'  d='M53.9,168.4 L62.9,168.4 M615.0,168.4 L606.0,168.4  '/>	<g transform="translate(45.6,172.3)" stroke="none" fill="black" font-family="Arial" font-size="12.00"  text-anchor="end">
		<text><tspan font-family="Arial" > 400</tspan></text>
	</g>
</g>
<g fill="none" color="black" stroke="currentColor" stroke-width="1.00" stroke-linecap="butt" stroke-linejoin="miter">
	<path stroke='black'  d='M53.9,98.8 L62.9,98.8 M615.0,98.8 L606.0,98.8  '/>	<g transform="translate(45.6,102.7)" stroke="none" fill="black" font-family="Arial" font-size="12.00"  text-anchor="end">
		<text><tspan font-family="Arial" > 500</tspan></text>
	</g>
</g>
<g fill="none" color="black" stroke="currentColor" stroke-width="1.00" stroke-linecap="butt" stroke-linejoin="miter">
	<path stroke='black'  d='M53.9,29.3 L62.9,29.3 M615.0,29.3 L606.0,29.3  '/>	<g transform="translate(45.6,33.2)" stroke="none" fill="black" font-family="Arial" font-size="12.00"  text-anchor="end">
		<text><tspan font-family="Arial" > 600</tspan></text>
	</g>
</g>
<g fill="none" color="black" stroke="currentColor" stroke-width="1.00" stroke-linecap="butt" stroke-linejoin="miter">
	<path stroke='black'  d='M53.9,428.0 L53.9,419.0 M53.9,18.1 L53.9,27.1  '/>	<g transform="translate(53.9,449.9)" stroke="none" fill="black" font-family="Arial" font-size="12.00"  text-anchor="middle">
		<text><tspan font-family="Arial" > 0</tspan></text>
	</g>
</g>
<g fill="none" color="black" stroke="currentColor" stroke-width="1.00" stroke-linecap="butt" stroke-linejoin="miter">
	<path stroke='black'  d='M110.6,428.0 L110.6,419.0 M110.6,18.1 L110.6,27.1  '/>	<g transform="translate(110.6,449.9)" stroke="none" fill="black" font-family="Arial" font-size="12.00"  text-anchor="middle">
		<text><tspan font-family="Arial" > 10</tspan></text>
	</g>
</g>
<g fill="none" color="black" stroke="currentColor" stroke-width="1.00" stroke-linecap="butt" stroke-linejoin="miter">
	<path stroke='black'  d='M167.3,428.0 L167.3,419.0 M167.3,18.1 L167.3,27.1  '/>	<g transform="translate(167.3,449.9)" stroke="none" fill="black" font-family="Arial" font-size="12.00"  text-anchor="middle">
		<text><tspan font-family="Arial" > 20</tspan></text>
	</g>
</g>
<g fill="none" color="black" stroke="currentColor" stroke-width="1.00" stroke-linecap="butt" stroke-linejoin="miter">
	<path stroke='black'  d='M223.9,428.0 L223.9,419.0 M223.9,18.1 L223.9,27.1  '/>	<g transform="translate(223.9,449.9)" stroke="none" fill="black" font-family="Arial" font-size="12.00"  text-anchor="middle">
		<text><tspan font-family="Arial" > 30</tspan></text>
	</g>
</g>
<g fill="none" color="black" stroke="currentColor" stroke-width="1.00" stroke-linecap="butt" stroke-linejoin="miter">
	<path stroke='black'  d='M280.6,428.0 L280.6,419.0 M280.6,18.1 L280.6,27.1  '/>	<g transform="translate(280.6,449.9)" stroke="none" fill="black" font-family="Arial" font-size="12.00"  text-anchor="middle">
		<text><tspan font-family="Arial" > 40</tspan></text>
	</g>
</g>
<g fill="none" color="black" stroke="currentColor" stroke-width="1.00" stroke-linecap="butt" stroke-linejoin="miter">
	<path stroke='black'  d='M337.3,428.0 L337.3,419.0 M337.3,18.1 L337.3,27.1  '/>	<g transform="translate(337.3,449.9)" stroke="none" fill="black" font-family="Arial" font-size="12.00"  text-anchor="middle">
		<text><tspan font-family="Arial" > 50</tspan></text>
	</g>
</g>
<g fill="none" color="black" stroke="currentColor" stroke-width="1.00" stroke-linecap="butt" stroke-linejoin="miter">
	<path stroke='black'  d='M394.0,428.0 L394.0,419.0 M394.0,18.1 L394.0,27.1  '/>	<g transform="translate(394.0,449.9)" stroke="none" fill="black" font-family="Arial" font-size="12.00"  text-anchor="middle">
		<text><tspan font-family="Arial" > 60</tspan></text>
	</g>
</g>
<g fill="none" color="black" stroke="currentColor" stroke-width="1.00" stroke-linecap="butt" stroke-linejoin="miter">
	<path stroke='black'  d='M450.6,428.0 L450.6,419.0 M450.6,18.1 L450.6,27.1  '/>	<g transform="translate(450.6,449.9)" stroke="none" fill="black" font-family="Arial" font-size="12.00"  text-anchor="middle">
		<text><tspan font-family="Arial" > 70</tspan></text>
	</g>
</g>
<g fill="none" color="black" stroke="currentColor" stroke-width="1.00" stroke-linecap="butt" stroke-linejoin="miter">
	<path stroke='black'  d='M507.3,428.0 L507.3,419.0 M507.3,18.1 L507.3,27.1  '/>	<g transform="translate(507.3,449.9)" stroke="none" fill="black" font-family="Arial" font-size="12.00"  text-anchor="middle">
		<text><tspan font-family="Arial" > 80</tspan></text>
	</g>
</g>
<g fill="none" color="black" stroke="currentColor" stroke-width="1.00" stroke-linecap="butt" stroke-linejoin="miter">
	<path stroke='black'  d='M564.0,428.0 L564.0,419.0 M564.0,18.1 L564.0,27.1  '/>	<g transform="translate(564.0,449.9)" stroke="none" fill="black" font-family="Arial" font-size="12.00"  text-anchor="middle">
		<text><tspan font-family="Arial" > 90</tspan></text>
	</g>
</g>
<g fill="none" color="black" stroke="currentColor" stroke-width="1.00" stroke-linecap="butt" stroke-linejoin="miter">
</g>
<g fill="none" color="black" stroke="currentColor" stroke-width="1.00" stroke-linecap="butt" stroke-linejoin="miter">
	<path stroke='black'  d='M53.9,18.1 L53.9,428.0 L615.0,428.0 L615.0,18.1 L53.9,18.1 Z  '/></g>
<g fill="none" color="black" stroke="currentColor" stroke-width="1.00" stroke-linecap="butt" stroke-linejoin="miter">
</g>
	<g id="gnuplot_plot_1" ><title>pages+cached+nointeractive</title>
<g fill="none" color="black" stroke="currentColor" stroke-width="1.00" stroke-linecap="butt" stroke-linejoin="miter">
	<g transform="translate(275.6,467.9)" stroke="none" fill="black" font-family="Arial" font-size="12.00"  text-anchor="end">
		<text><tspan font-family="Arial" >pages+cached+nointeractive</tspan></text>
	</g>
</g>
<g fill="none" color="black" stroke="currentColor" stroke-width="1.00" stroke-linecap="butt" stroke-linejoin="miter">
	<path stroke='rgb(148,   0, 211)'  d='M283.9,464.0 L326.1,464.0 M53.9,43.1 L59.6,68.1 L65.2,30.3 L70.9,52.3 L76.6,46.3 L82.2,64.5
		L87.9,43.5 L93.6,66.9 L99.2,47.2 L104.9,26.0 L110.6,51.8 L116.2,47.0 L121.9,53.4 L127.6,46.2
		L133.2,67.9 L138.9,67.3 L144.6,49.4 L150.3,69.7 L155.9,64.0 L161.6,48.5 L167.3,66.7 L172.9,65.0
		L178.6,67.4 L184.3,50.1 L189.9,33.5 L195.6,62.7 L201.3,67.5 L206.9,67.7 L212.6,66.4 L218.3,69.5
		L223.9,49.7 L229.6,67.3 L235.3,67.5 L240.9,45.8 L246.6,68.4 L252.3,69.5 L257.9,59.0 L263.6,58.8
		L269.3,49.3 L274.9,63.0 L280.6,66.4 L286.3,50.7 L291.9,71.9 L297.6,49.8 L303.3,67.2 L308.9,63.0
		L314.6,64.4 L320.3,58.9 L325.9,56.4 L331.6,66.2 L337.3,64.3 L343.0,63.4 L348.6,63.3 L354.3,67.5
		L360.0,61.9 L365.6,66.8 L371.3,41.7 L377.0,50.7 L382.6,65.0 L388.3,70.0 L394.0,66.6 L399.6,50.2
		L405.3,65.8 L411.0,69.1 L416.6,68.5 L422.3,63.2 L428.0,67.0 L433.6,66.7 L439.3,51.9 L445.0,64.0
		L450.6,45.3 L456.3,47.5 L462.0,63.1 L467.6,48.2 L473.3,63.8 L479.0,65.5 L484.6,67.2 L490.3,67.3
		L496.0,68.5 L501.6,71.6 L507.3,58.9 L513.0,62.2 L518.6,55.7 L524.3,67.1 L530.0,66.0 L535.7,43.2
		L541.3,65.5 L547.0,44.0 L552.7,64.2 L558.3,64.3 L564.0,68.1 L569.7,52.1 L575.3,68.6 L581.0,67.7
		L586.7,61.0 L592.3,50.4 L598.0,67.6 L603.7,65.0 L609.3,48.4 L615.0,57.5  '/></g>
	</g>
	<g id="gnuplot_plot_2" ><title>pages+cached+noadtech</title>
<g fill="none" color="black" stroke="currentColor" stroke-width="1.00" stroke-linecap="butt" stroke-linejoin="miter">
	<g transform="translate(275.6,485.9)" stroke="none" fill="black" font-family="Arial" font-size="12.00"  text-anchor="end">
		<text><tspan font-family="Arial" >pages+cached+noadtech</tspan></text>
	</g>
</g>
<g fill="none" color="black" stroke="currentColor" stroke-width="1.00" stroke-linecap="butt" stroke-linejoin="miter">
	<path stroke='rgb(  0, 158, 115)'  d='M283.9,482.0 L326.1,482.0 M53.9,417.5 L59.6,418.7 L65.2,417.9 L70.9,417.5 L76.6,418.1 L82.2,418.3
		L87.9,418.7 L93.6,418.8 L99.2,418.5 L104.9,417.7 L110.6,417.9 L116.2,417.4 L121.9,418.4 L127.6,418.3
		L133.2,418.5 L138.9,418.4 L144.6,418.5 L150.3,418.8 L155.9,418.0 L161.6,417.9 L167.3,418.0 L172.9,418.7
		L178.6,420.1 L184.3,417.9 L189.9,418.4 L195.6,417.8 L201.3,418.2 L206.9,418.2 L212.6,418.7 L218.3,418.3
		L223.9,415.2 L229.6,419.6 L235.3,419.4 L240.9,418.4 L246.6,417.7 L252.3,417.4 L257.9,418.5 L263.6,418.7
		L269.3,418.3 L274.9,418.6 L280.6,417.6 L286.3,418.6 L291.9,418.4 L297.6,417.5 L303.3,417.8 L308.9,417.9
		L314.6,418.1 L320.3,417.3 L325.9,417.6 L331.6,418.0 L337.3,418.7 L343.0,417.4 L348.6,418.7 L354.3,417.5
		L360.0,418.3 L365.6,418.5 L371.3,417.4 L377.0,417.9 L382.6,418.6 L388.3,418.0 L394.0,418.6 L399.6,418.3
		L405.3,418.7 L411.0,418.0 L416.6,419.5 L422.3,418.3 L428.0,418.5 L433.6,418.4 L439.3,417.9 L445.0,418.9
		L450.6,416.4 L456.3,418.1 L462.0,418.7 L467.6,417.1 L473.3,417.8 L479.0,419.0 L484.6,418.0 L490.3,418.2
		L496.0,419.3 L501.6,417.5 L507.3,417.7 L513.0,419.0 L518.6,418.0 L524.3,416.8 L530.0,419.3 L535.7,418.8
		L541.3,418.1 L547.0,417.8 L552.7,418.9 L558.3,418.1 L564.0,418.0 L569.7,418.3 L575.3,417.9 L581.0,418.4
		L586.7,418.7 L592.3,417.4 L598.0,418.2 L603.7,418.8 L609.3,418.1 L615.0,417.6  '/></g>
	</g>
	<g id="gnuplot_plot_3" ><title>score p10=1282</title>
<g fill="none" color="black" stroke="currentColor" stroke-width="1.00" stroke-linecap="butt" stroke-linejoin="miter">
	<g transform="translate(550.2,467.9)" stroke="none" fill="black" font-family="Arial" font-size="12.00"  text-anchor="end">
		<text><tspan font-family="Arial" >score p10=1282</tspan></text>
	</g>
</g>
<g fill="none" color="black" stroke="currentColor" stroke-width="1.00" stroke-linecap="butt" stroke-linejoin="miter">
	<path stroke='rgb( 86, 180, 233)'  d='M558.5,464.0 L600.7,464.0  '/></g>
	</g>
	<g id="gnuplot_plot_4" ><title>score median=3500</title>
<g fill="none" color="black" stroke="currentColor" stroke-width="1.00" stroke-linecap="butt" stroke-linejoin="miter">
	<g transform="translate(550.2,485.9)" stroke="none" fill="black" font-family="Arial" font-size="12.00"  text-anchor="end">
		<text><tspan font-family="Arial" >score median=3500</tspan></text>
	</g>
</g>
<g fill="none" color="black" stroke="currentColor" stroke-width="1.00" stroke-linecap="butt" stroke-linejoin="miter">
	<path stroke='rgb(230, 159,   0)'  d='M558.5,482.0 L600.7,482.0  '/></g>
	</g>
<g fill="none" color="#FFFFFF" stroke="rgb(230, 159,   0)" stroke-width="2.00" stroke-linecap="butt" stroke-linejoin="miter">
</g>
<g fill="none" color="black" stroke="currentColor" stroke-width="2.00" stroke-linecap="butt" stroke-linejoin="miter">
</g>
<g fill="none" color="black" stroke="black" stroke-width="1.00" stroke-linecap="butt" stroke-linejoin="miter">
</g>
<g fill="none" color="black" stroke="currentColor" stroke-width="1.00" stroke-linecap="butt" stroke-linejoin="miter">
	<path stroke='black'  d='M53.9,18.1 L53.9,428.0 L615.0,428.0 L615.0,18.1 L53.9,18.1 Z  '/></g>
<g fill="none" color="black" stroke="currentColor" stroke-width="1.00" stroke-linecap="butt" stroke-linejoin="miter">
</g>
</g>
</svg>
